X:1
T:Jesus Is Ever the Same
T:Jesus Is Ever the Same
T:H. A. Davis
T:Eden Reeder Latta, 1900
T:Public Domain Courtesy of the Cyber Hymnal™
T:Public Domain Courtesy of the Cyber Hymnal™
C:H. A. Davis
Z:Public Domain
Z:Courtesy of the Cyber Hymnal™
%%score ( 1 2 ) ( 3 4 )
L:1/8
Q:1/4=85
M:6/8
K:F
V:1 treble 
V:2 treble 
V:3 bass 
V:4 bass 
V:1
 [CF] | [FA][EG]F [CG]<[CF][CE] | [B,D][CE][DF] [A,C]2 [CF] | [EB][FA][EG] [FA]<[FA][F=B] | %4
w: 1.~The|friends we have trust- ed may|turn us a- way, The|lips that have praised us may|
w: 2.~The|hopes that we cher- ish may|prove to be vain, And|per- ish the joys that we|
w: 3.~The|beau- ti- ful morn- ing a|tem- pest may bring, And|light- nings a- bout us may|
w: 4.~Then|let us in glad- ness o-|bey His com- mands, His|love and His good- ness pro-|
 [Ec]3- [Ec]2 [Ec] | [Fc][Fd][Fc] [FA]<[CF][CE] | [B,D][CE][DF] [A,C]2 [CF] | %7
w: blame; * But|there is one friend who will|ne- ver be- tray, For|
w: claim; * But|there is a pro- mise that|still will re- main, For|
w: flame; * But,|cer- tain as win- ter is|fol- lowed by spring, The|
w: claim; * The|King of all king- doms and|Lord of all lands Is|
 [FA][FG]F [EG]<[EG][CE] | [CF]3- [CF]2 z ||"^Refrain" [FA][EG]F [EB]3 | [GB][FA][EG] [Fc]3 | %11
w: Je- sus is ev- er the|same. *|||
w: Je- sus is ev- er the|same. *|Ev- er the same,|ev- er the same,|
w: Sav- ior is ev- er the|same. *|||
w: ev- er and ev- er the|same. *|||
 [Fc][Fc][Gc] [Fd]<[Fd][F=B] | [Ec]3- [Ec]2 z | [Fc][EB][FA] [EB]3 | [EB][FA]G [FA]2 [CF] | %15
w: ||||
w: Je- sus is ev- er the|same; *|Ev- er the same,|ev- er the same, Yes,|
w: ||||
w: ||||
 [DG][DG][DG] [CG]<[CF][CE] | F3- [CF]2 |] %17
w: ||
w: Je- sus is ev- er the|same. *|
w: ||
w: ||
V:2
 x | x2 F x3 | x6 | x6 | x6 | x6 | x6 | x2 F x3 | x6 || x2 F x3 | x6 | x6 | x6 | x6 | x2 G x3 | %15
 x6 | C>CD x2 |] %17
V:3
 [F,A,] | [F,C][F,B,][F,A,] [F,B,]<[F,A,][A,,F,] | [B,,F,][B,,F,][B,,F,] F,2 [F,A,] | %3
w: ~|~ ~ ~ ~ ~ ~|~ ~ ~ ~ ~|
 [C,C][C,C][C,C] [F,C]<[F,C][D,G,] | [C,G,]3- [C,G,]2 [C,B,] | %5
w: ~ ~ ~ ~ ~ ~|~ * ~|
 [F,A,][F,B,][F,A,] [F,C]<[F,A,][A,,F,] | [B,,F,][B,,F,][B,,F,] F,2 [F,A,] | %7
w: ~ ~ ~ ~ ~ ~|~ ~ ~ ~ ~|
 [F,C][F,B,][F,A,] [C,B,]<[C,B,][C,B,] | [F,A,]3- [F,A,]2 z || [F,C][F,B,][F,A,] [G,C]3 | %10
w: ~ ~ ~ ~ ~ ~|~ *|~ ~ ~ ~|
 [C,C][C,C][B,C] [A,C]3 | [F,A,][F,A,][E,G,] [D,A,]<[D,A,]G, | [C,G,]3- [C,G,]2 z | %13
w: ~ ~ ~ ~|~ ~ ~ ~ ~ ~|~ *|
 [A,C][G,C][F,C] [C,C]3 | [C,C][D,C][E,C] [F,C]2 [F,A,] | %15
w: ~ ~ ~ ~|~ ~ ~ ~ ~|
 [B,,B,][B,,B,][B,,B,] [C,B,]<[C,A,][C,G,] | A,>A,B, [F,A,]2 |] %17
w: ~ ~ ~ ~ ~ is|ev- er the same.|
V:4
 x | x6 | x3 F,2 x | x6 | x6 | x6 | x3 F,2 x | x6 | x6 || x6 | x6 | x5 G, | x6 | x6 | x6 | x6 | %16
 F,3- x2 |] %17

